X:470
T:
R:vals
S:Ur von Baumgartens samling, Visby.
O:Gotland, Visby
M:3/4
L:1/8
K:D
A>A|A2 A2 A2|LA4 (cd)|A2 A2 A2|A4 (^de)|A2 A2 A2 | A4 a2|(ge)(cA)(Bc)|d4::F>F|F2 B2 d2|fefg f2|(gf)(ed)(cB)|A4 AA|
(Ad)(fe)(dc)|(BA)(GF)(ED)|(CE) A2 C2|D4::
K:G
ed|d2 d2 d2|(ed)(ed)(=cB)|(AB)(cd)(ef)|g2 d2 ed|d2 d2 d2|(ed)(ed)(cB)|(AB)(cd)(ef)|g4:|

